kora-light/actions/scalable/tools-media-optical-format.svg

<svg xmlns="http://www.w3.org/2000/svg" style="fill-rule:evenodd;clip-rule:evenodd;stroke-linejoin:round;stroke-miterlimit:2" width="100%" height="100%" version="1.1" viewBox="0 0 16 16" xml:space="preserve">
 <defs>
  <style id="current-color-scheme" type="text/css">
   .ColorScheme-Text { color:#444444; } .ColorScheme-Highlight { color:#4285f4; } .ColorScheme-NeutralText { color:#ff9800; } .ColorScheme-PositiveText { color:#4caf50; } .ColorScheme-NegativeText { color:#f44336; }
  </style>
 </defs>
 <path style="fill:currentColor;fill-opacity:0.3;" class="ColorScheme-Text" d="M8,1c-3.84,0 -7,3.16 -7,7c0,3.84 3.16,7 7,7c3.84,0 7,-3.16 7,-7c0,-3.84 -3.16,-7 -7,-7Zm0,5c1.097,0 2,0.903 2,2c0,1.097 -0.903,2 -2,2c-1.097,0 -2,-0.903 -2,-2c0,-1.097 0.903,-2 2,-2Z"/>
 <path style="fill:currentColor;" class="ColorScheme-Text" d="M8,0.991c-3.845,-0 -7.009,3.164 -7.009,7.009c-0,3.845 3.164,7.009 7.009,7.009c3.845,0 7.009,-3.164 7.009,-7.009c0,-3.845 -3.164,-7.009 -7.009,-7.009Zm0,0.85c-3.379,-0 -6.159,2.78 -6.159,6.159c-0,3.379 2.78,6.159 6.159,6.159c3.379,0 6.159,-2.78 6.159,-6.159c0,-3.379 -2.78,-6.159 -6.159,-6.159Z"/>
</svg>

<svg xmlns="http://www.w3.org/2000/svg" width="16" height="16" version="1.1">
 <defs>
  <style id="current-color-scheme" type="text/css">
   .ColorScheme-Text { color:#444444; } .ColorScheme-Highlight { color:#4285f4; }
  </style>
 </defs>
 <path style="fill:currentColor" class="ColorScheme-Text" d="M 8 1 A 7 7 0 0 0 1 8 A 7 7 0 0 0 8 15 A 7 7 0 0 0 15 8 A 7 7 0 0 0 8 1 z M 8 6 A 2 2 0 0 1 10 8 A 2 2 0 0 1 8 10 A 2 2 0 0 1 6 8 A 2 2 0 0 1 8 6 z"/>
</svg>
